X:582
T: "Mailied"
N: Z1262
O: Europa, Mitteleuropa, Deutschland, Niederrhein
R: Natur und Welt
M: 3/4
L: 1/8
K: Bb
F2 | B3cdB | F3D
EF | G3ABG | F2E2
D2 | E2G2FE | D2F2
B2 | dcB2A2 | B4
Bc | d2B2f2 | c2B2
A2 | B2G2c2 | A2F2
F2 | G3ABG | F2B2
d2 | dcB2A2 | B4

@@@ Tune index: 10340
